flaticon/interaction/calendar-18.svg

<svg xmlns="http://www.w3.org/2000/svg" width="32" height="32" viewBox="0 0 24 24">
    <path d="M23.875 22.832031L20.9375 19.894531 23.738281 18.492188 16.117188 15.6875 18.925781 23.304688 20.324219 20.503906 23.261719 23.441406C23.347656 23.527344 23.457031 23.570312 23.566406 23.570312 23.679688 23.570312 23.789062 23.527344 23.871094 23.441406 24.042969 23.273438 24.042969 23 23.875 22.832031zM17.578125 17.144531L21.566406 18.613281 19.886719 19.453125 19.046875 21.132812zM7.800781 17.746094L7.800781 7.777344 6.9375 7.777344 4.75 9.070312 4.75 9.9375 6.9375 8.640625 6.9375 17.746094zM12.417969 7.78125C11.539062 7.78125 10.792969 8.085938 10.179688 8.703125 9.566406 9.316406 9.257812 10.0625 9.257812 10.9375 9.257812 11.816406 9.566406 12.5625 10.179688 13.175781 10.792969 13.792969 11.554688 14.097656 12.460938 14.097656 13.367188 14.097656 14.132812 13.761719 14.757812 13.085938L14.757812 14.015625C14.757812 14.945312 14.484375 15.652344 13.941406 16.132812 13.394531 16.613281 12.75 16.855469 12.007812 16.855469L11.6875 16.855469 11.6875 17.671875 11.949219 17.671875C12.613281 17.671875 13.191406 17.554688 13.6875 17.324219 14.183594 17.089844 14.558594 16.789062 14.816406 16.421875 15.324219 15.710938 15.574219 14.941406 15.574219 14.117188L15.574219 10.945312C15.574219 10.0625 15.269531 9.316406 14.652344 8.703125 14.039062 8.085938 13.292969 7.78125 12.417969 7.78125zM14.082031 12.605469C13.632812 13.054688 13.078125 13.28125 12.425781 13.28125 11.769531 13.28125 11.214844 13.054688 10.761719 12.605469 10.304688 12.152344 10.074219 11.601562 10.074219 10.945312 10.074219 10.292969 10.304688 9.738281 10.761719 9.28125 11.214844 8.824219 11.769531 8.597656 12.417969 8.597656 13.066406 8.597656 13.621094 8.816406 14.074219 9.257812 14.53125 9.699219 14.757812 10.253906 14.757812 10.921875 14.757812 11.59375 14.535156 12.152344 14.082031 12.605469zM14.082031 12.605469"/>
    <path d="M 14.253906 19.871094 L 0.863281 19.871094 L 0.863281 5.617188 L 21.167969 5.617188 L 21.167969 14.253906 C 21.167969 14.496094 21.359375 14.6875 21.597656 14.6875 C 21.839844 14.6875 22.03125 14.496094 22.03125 14.253906 L 22.03125 0.433594 L 0 0.433594 L 0 20.304688 C 0 20.542969 0.191406 20.734375 0.433594 20.734375 L 14.253906 20.734375 C 14.496094 20.734375 14.6875 20.542969 14.6875 20.304688 C 14.6875 20.066406 14.496094 19.871094 14.253906 19.871094 Z M 15.121094 1.296875 L 21.167969 1.296875 L 21.167969 4.75 L 15.121094 4.75 Z M 8.207031 1.296875 L 14.253906 1.296875 L 14.253906 4.75 L 8.207031 4.75 Z M 0.863281 1.296875 L 7.34375 1.296875 L 7.34375 4.75 L 0.863281 4.75 Z M 0.863281 1.296875"/>
</svg>

<svg xmlns="http://www.w3.org/2000/svg" width="32" height="32" viewBox="0 0 24 24">
    <path d="M23.875 22.832l-2.938-2.937 2.801-1.403-7.62-2.805 2.808 7.618 1.398-2.801 2.938 2.937a.43.43 0 0 0 .304.13.417.417 0 0 0 .305-.13.428.428 0 0 0 .004-.609zm-6.297-5.687l3.988 1.468-1.68.84-.84 1.68zm0 0M7.8 17.746V7.777h-.862L4.75 9.07v.867l2.188-1.296v9.105zm0 0M12.418 7.781c-.879 0-1.625.305-2.238.922a3.046 3.046 0 0 0-.922 2.235c0 .878.308 1.624.922 2.238.613.617 1.375.922 2.28.922.907 0 1.673-.336 2.298-1.012v.93c0 .93-.274 1.636-.817 2.117a2.837 2.837 0 0 1-1.933.722h-.32v.817h.261c.664 0 1.242-.117 1.739-.348.496-.234.87-.535 1.128-.902.508-.711.758-1.48.758-2.305v-3.172c0-.883-.304-1.629-.922-2.242-.613-.617-1.359-.922-2.234-.922zm1.664 4.824c-.45.45-1.004.676-1.656.676-.656 0-1.211-.226-1.664-.676a2.246 2.246 0 0 1-.688-1.66c0-.652.23-1.207.688-1.664a2.246 2.246 0 0 1 1.656-.683c.648 0 1.203.218 1.656.66.457.441.684.996.684 1.664 0 .672-.223 1.23-.676 1.683zm0 0"/>
    <path d="M14.254 19.871H.864V5.617h20.304v8.637a.43.43 0 0 0 .43.434.43.43 0 0 0 .433-.434V.434H0v19.87c0 .239.191.43.434.43h13.82a.433.433 0 0 0 0-.863zm.867-18.574h6.047V4.75h-6.047zm-6.914 0h6.047V4.75H8.207zm-7.344 0h6.48V4.75H.864zm0 0"/>
</svg>
